X: 3
T: All Those Endearing Young Charms
Z: benhockenberry
S: https://thesession.org/tunes/6788#setting18393
R: waltz
M: 3/4
L: 1/8
K: Dmaj
F/E/|D>E D DFA|B3-B2c/d/|A>F D DEF|{F}E3-E2F/E/|!D>E D DFA|B3-B2c/d/|AdF E>D E|D3-D2A|!A>B c d>c d|{c}B3-B2c/d/|AFD DEF|{F}E3-E2F/E/|!D>E D DFA|B3-B2c/d/|AdF E>D E|D3-D2||
